section-13/instagram.svg

<svg width="20" height="20" viewBox="0 0 20 20" fill="none" xmlns="http://www.w3.org/2000/svg">
<g clip-path="url(#clip0_671_52)">
<path d="M13.6446 0H5.58624C2.50597 0 0 2.60621 0 5.80969V14.1903C0 17.3938 2.50597 20 5.58624 20H13.6445C16.7248 20 19.2308 17.3938 19.2308 14.1904V5.80969C19.2308 2.60621 16.7248 0 13.6446 0ZM17.7284 14.1903C17.7284 16.5322 15.8964 18.4375 13.6446 18.4375H5.58624C3.3344 18.4375 1.5024 16.5322 1.5024 14.1904V5.80969C1.5024 3.46777 3.3344 1.5625 5.58624 1.5625H13.6445C15.8964 1.5625 17.7284 3.46777 17.7284 5.80969V14.1903Z" fill="#BABABA"/>
<path d="M9.61591 4.60938C6.75781 4.60938 4.43262 7.02758 4.43262 10C4.43262 12.9724 6.75781 15.3906 9.61591 15.3906C12.474 15.3906 14.7992 12.9724 14.7992 10C14.7992 7.02758 12.474 4.60938 9.61591 4.60938ZM9.61591 13.8281C7.58628 13.8281 5.93502 12.1108 5.93502 10C5.93502 7.88918 7.58628 6.17188 9.61591 6.17188C11.6455 6.17188 13.2968 7.88918 13.2968 10C13.2968 12.1108 11.6455 13.8281 9.61591 13.8281Z" fill="#BABABA"/>
<path d="M14.8733 5.3125C15.2881 5.3125 15.6245 4.96272 15.6245 4.53125C15.6245 4.09978 15.2881 3.75 14.8733 3.75C14.4584 3.75 14.1221 4.09978 14.1221 4.53125C14.1221 4.96272 14.4584 5.3125 14.8733 5.3125Z" fill="#BABABA"/>
</g>
<defs>
<clipPath id="clip0_671_52">
<rect width="19.2308" height="20" fill="white"/>
</clipPath>
</defs>
</svg>

<svg xmlns="http://www.w3.org/2000/svg" width="20" height="20" fill="none"><g fill="#BABABA" clip-path="url(#a)"><path d="M13.645 0H5.586C2.506 0 0 2.606 0 5.81v8.38C0 17.394 2.506 20 5.586 20h8.059c3.08 0 5.586-2.606 5.586-5.81V5.81c0-3.204-2.506-5.81-5.586-5.81Zm4.083 14.19c0 2.342-1.832 4.248-4.083 4.248H5.586c-2.252 0-4.084-1.906-4.084-4.248V5.81c0-2.342 1.832-4.247 4.084-4.247h8.059c2.251 0 4.083 1.905 4.083 4.247v8.38Z"/><path d="M9.616 4.61c-2.858 0-5.183 2.418-5.183 5.39 0 2.972 2.325 5.39 5.183 5.39 2.858 0 5.183-2.418 5.183-5.39 0-2.972-2.325-5.39-5.183-5.39Zm0 9.218c-2.03 0-3.681-1.717-3.681-3.828 0-2.11 1.651-3.828 3.68-3.828 2.03 0 3.682 1.717 3.682 3.828 0 2.11-1.652 3.828-3.681 3.828ZM14.873 5.313c.415 0 .752-.35.752-.782 0-.431-.337-.781-.752-.781s-.75.35-.75.781c0 .432.335.782.75.782Z"/></g><defs><clipPath id="a"><path fill="#fff" d="M0 0h19.231v20H0z"/></clipPath></defs></svg>
